X: 1
T:Splashing of the Churn (#181), The
M:9/8
L:1/8
S:Capt. F. O'Neill
K:G
G2 B E2 B BAG|F2 A D2 A AGF|G2 B E2 B BAG|BdB AGF E3:||
g2 e g2 e edB|f2 d ded fga|g2 e g2 e edB|dBA ABd e3|
g2 e g2 e edB|f2 d ded fga|g2 e f2 d edB|BdB AGF E3||
%
% This spirited Slip Jig is a variant of "Dublin Streets", obtained from
%
% Mr. Ennis of the Irish Music Club of Chicago, and published in
% former O'Neill Collections. "The Splashing of the Churn", or in
% Irish "Glugur an Meadair" is the original name of the tune.
% Following is another version of it [Humors of Bottle Hill #182],
% obtained thru the courtesy of Sergt. James P. Walsh of
% Chicago whose manuscript collection has been a prolific source
% of many desirable melodies hitherto unpublished.

